X:136
U: ~ = !turn!
%%topmargin 3cm
T:Mullin's Fancy
B:Traditional Irish Fiddle Tunes. Randy Miller and Jack Perron.
Z:Transcribed by Ralph Palmer
S:Packie Dolan
R:Reel
L:1/8
M:C|
K:D
af ~f2 eB ~B2 | ~d3 e fa a2 | Pf2 df eB ~B2 | AF ~F2 EF D2 |
~d3 f eB ~B2 | ~d3 e fa ~a2 | Pf2 df eB ~B2 | AF ~F2 EF D2 ||
{/f}a2 {/b}a^g afdf | afdf afde | {/f}a2 {/b}ag afdf | gfed Bdeg |
{/f}a2 {/b}a^g afdf | a2 {/b}af gfga | ((3bag) ((3agf) gfef | g2 gf ~g3 f |]
